X: 3002
M: 3/4
L: 1/8
K: G
|:\
f4 (f/g/a) | f3 e d2 |
g4 (g/a/b) | a3 g f2 |\
e2 e2 f2 | g2 G2 A2 |\
e4 ^d2 | e2 B2 f2 |\
g2 (ag) (fe) | d2 A2 B2 |\
c2 (dc) (BA) | B2 G2 d2 |
(ed) (ef) (ge) | (fe) (fg) (af) |\
g6 | (ga) (ba) (gf) |\
(ef) (gf) (ed) | (Be) (dB) (AG) |\


